common/app/assets/images/global/camera-black-large.svg

<svg xmlns="http://www.w3.org/2000/svg" width="18" height="13"><path fill="#333" d="M18 3.5v8l-1.5 1.5h-15l-1.5-1.5v-8l1.5-1.5h3.5l2-2h4l2 2h3.5l1.5 1.5zm-9 7.5c1.9 0 3.5-1.6 3.5-3.5s-1.6-3.5-3.5-3.5-3.5 1.6-3.5 3.5 1.6 3.5 3.5 3.5z"/></svg>

<svg xmlns="http://www.w3.org/2000/svg" width="18" height="13"><path fill="#333" d="M18 3.5v8L16.5 13h-15L0 11.5v-8L1.5 2H5l2-2h4l2 2h3.5L18 3.5zM9 11c1.9 0 3.5-1.6 3.5-3.5S10.9 4 9 4 5.5 5.6 5.5 7.5 7.1 11 9 11z"/></svg>
